X:1
T:Whoever Will, LM
T:Whoever Will, LM
T:Ira David Sankey, 1887
T:Public Domain Courtesy of the Cyber Hymnal™
C:Ira David Sankey, 1887
Z:Public Domain
Z:Courtesy of the Cyber Hymnal™
%%score ( 1 2 ) ( 3 4 )
L:1/8
Q:1/4=117
M:6/4
K:F
V:1 treble 
V:2 treble 
V:3 bass 
V:4 bass 
V:1
 C2 | (A3 G) [FA]2 [Fc]4 F2 | [FA]4 [EG]2 F4 F2 | (B3 c) [Fd]2 [Fc]4 [FA]2 | %4
 (A3 G) [DF]2 [EG]4 C2 | (A3 G) [FA]2 [Fc]4 [FA]2 | [FB]4 [Fc]2 [Fd]4 [Be]2 | %7
 ([Af]2 [Fc]2) [Fd]2 [Fc]4 F2 | [FA]4 [EG]2 F4 |] %9
V:2
 C2 | F4 x3 F2 x3 | x6 F4 F2 | F4 x8 | F4 x3 C2 x3 | F4 x8 | x12 | x10 F2 | x6 F4 |] %9
V:3
 [F,A,]2 | (C3 B,) [F,C]2 [F,A,]4 [A,,C]2 | [C,C]4 [C,B,]2 [F,A,]4 [F,A,]2 | %3
 ([D,B,]3 [C,A,]) [B,,B,]2 [F,A,]4 [F,C]2 | [D,=B,]4 [G,,B,]2 [C,C]4 [C,C]2 | %5
 (C3 B,) [F,C]2 [F,A,]4 [_E,C]2 | [D,B,]4 [F,A,]2 B,4 [G,C]2 | (C2 A,2) [F,B,]2 [F,A,]4 [D,A,]2 | %8
 [C,C]4 [C,B,]2 [F,A,]4 |] %9
V:4
 x2 | F,4 x8 | x12 | x12 | x12 | F,4 x8 | x6 B,4 x2 | F,4 x8 | x10 |] %9

